X:1
T: Dunkeld House
T: 8 x 32J 3C - John Drewry
P: Dunkeld House
C: Neil Gow
C: arr. T. Traub 11-24-2002
R: Jig
B: Gow Collection
Z: arr. Terry Traub 11-24-2002
M: 6/8
K: G
L: 1/8
|:B,|"Em"EFE G2 E|"Em"B2 E G2 E|"D"F2 D AFD|"D"dFD AFD|\
  "Em"EFE G2 E|"Em"B2 E G2 E|"G"B/^c/dB "D"AFA|"Em"BGE E2 :|
a|"Em"g/a/bg ege|"Em"g/a/bg ege|"D"f/g/af dfd|"D"f/g/af dfd|\
  "Em"g/a/bg ege|"Em"g/a/bg ege|"Em"g/a/bg "D"f/g/af|"Em"gee e2 a|
"Em"g/a/bg ege|"Em"g/a/bg ege|"D"f/g/af dfd|"D"f/g/af dfd|\
"Em"e/f/ge f/g/af|"Em"g/a/bg e/f/ge|"D"d/e/fd F/G/AF|"Em"BGE E2 |]
